public/svgs/light/circle-b.svg

<svg xmlns="http://www.w3.org/2000/svg" viewBox="0 0 512 512"><!-- Font Awesome Pro 6.0.0-alpha2 by @fontawesome - https://fontawesome.com License - https://fontawesome.com/license (Commercial License) --><path d="M331.775 249.865C344.244 236.918 352 219.393 352 200C352 160.234 319.766 128 280 128H192C174.326 128 160 142.326 160 160V352C160 369.674 174.326 384 192 384H296C335.766 384 368 351.764 368 312C368 285.326 353.326 262.305 331.775 249.865ZM192 160H280C302.057 160 320 177.943 320 200S302.057 240 280 240H192V160ZM296 352H192V272H296C318.057 272 336 289.943 336 312S318.057 352 296 352ZM256 16C123.451 16 16 123.451 16 256S123.451 496 256 496S496 388.549 496 256S388.549 16 256 16ZM256 464C141.309 464 48 370.691 48 256S141.309 48 256 48S464 141.309 464 256S370.691 464 256 464Z"/></svg>

<svg xmlns="http://www.w3.org/2000/svg" viewBox="0 0 512 512"><!--! Font Awesome Pro 6.5.1 by @fontawesome - https://fontawesome.com License - https://fontawesome.com/license (Commercial License) Copyright 2023 Fonticons, Inc. --><path d="M256 32a224 224 0 1 1 0 448 224 224 0 1 1 0-448zm0 480A256 256 0 1 0 256 0a256 256 0 1 0 0 512zM160 160v96 96c0 17.7 14.3 32 32 32H296c39.8 0 72-32.2 72-72c0-26.6-14.4-49.8-35.9-62.3C344.4 236.8 352 219.3 352 200c0-39.8-32.2-72-72-72H192c-17.7 0-32 14.3-32 32zm160 40c0 22.1-17.9 40-40 40H192V160h88c22.1 0 40 17.9 40 40zM192 352V272h88 16c22.1 0 40 17.9 40 40s-17.9 40-40 40H192z"/></svg>
